korla/apps/scalable/fs-uae-launcher.svg

<svg clip-rule="evenodd" fill-rule="evenodd" stroke-linecap="round" stroke-linejoin="round" viewBox="0 0 48 48" xmlns="http://www.w3.org/2000/svg">
 <linearGradient id="a" x2="1" gradientTransform="matrix(.833747 -42.8189 42.8189 .833747 23.1663 45.4988)" gradientUnits="userSpaceOnUse">
  <stop stop-color="#762276" offset="0"/>
  <stop stop-color="#935b93" offset="1"/>
 </linearGradient>
 <path d="m39.44 45.668h-30.88c-3.438 0-6.228-2.79-6.228-6.228v-30.88c0-3.438 2.79-6.228 6.228-6.228h30.88c3.438 0 6.228 2.79 6.228 6.228v30.88c0 3.438-2.79 6.228-6.228 6.228z" fill="url(#a)"/>
 <path d="m35.883 11-13.819 22.181-3.324-5.181h-4.74l6.393 10 3.388-.018 16.811-26.982z" fill="#ff8118" fill-rule="nonzero"/>
 <path d="m29.883 11-13.819 22.181-3.324-5.181h-4.74l6.393 10 3.388-.018 16.811-26.982z" fill="#abe619" fill-rule="nonzero"/>
 <g fill="none" stroke="#fff" stroke-width="2">
  <path d="m41 29s-3-.536-3 2 3 1.464 3 4-3 2-3 2"/>
  <path d="m34 33h-2m3-4c-3.387 0-3 1-3 8"/>
 </g>
</svg>

<svg style="clip-rule:evenodd;fill-rule:evenodd;stroke-linecap:round;stroke-linejoin:round" version="1.1" viewBox="0 0 48 48" xmlns="http://www.w3.org/2000/svg">
 <path d="m39.44 45.668h-30.88c-3.438 0-6.228-2.79-6.228-6.228v-30.88c0-3.438 2.79-6.228 6.228-6.228h30.88c3.438 0 6.228 2.79 6.228 6.228v30.88c0 3.438-2.79 6.228-6.228 6.228z" style="fill:url(#_Linear1)"/>
 <path d="M35.883,11L22.064,33.181L18.74,28L14,28L20.393,38L23.781,37.982L40.592,11L35.883,11Z" style="fill-rule:nonzero;fill:rgb(255,129,24)"/>
 <path d="M29.883,11L16.064,33.181L12.74,28L8,28L14.393,38L17.781,37.982L34.592,11L29.883,11Z" style="fill-rule:nonzero;fill:rgb(171,230,25)"/>
 <path d="m41 29s-3-0.536-3 2 3 1.464 3 4-3 2-3 2" style="fill:none;stroke-width:2px;stroke:white"/>
 <path d="m34 33h-2m3-4c-3.387 0-3 1-3 8" style="fill:none;stroke-width:2px;stroke:white"/>
 <defs>
  <linearGradient id="_Linear1" x2="1" gradientTransform="matrix(.833747 -42.8189 42.8189 .833747 23.1663 45.4988)" gradientUnits="userSpaceOnUse">
   <stop style="stop-color:rgb(118,34,118)" offset="0"/>
   <stop style="stop-color:rgb(147,91,147)" offset="1"/>
  </linearGradient>
 </defs>
</svg>
